Hatter-kde-dark/actions/24/news-subscribe.svg

<?xml version="1.0" encoding="UTF-8"?>
<svg viewBox="0 0 24 24" xmlns="http://www.w3.org/2000/svg">
 <defs id="defs3051">
  <style id="current-color-scheme" type="text/css">.ColorScheme-Text {
        color:#dedede;
      }</style>
 </defs>
 <path class="ColorScheme-Text" d="m5 4v2h-1v1 13h1 15v-1-12-1h-1v-2h-13-1zm1 1h12v1h-12v-1zm-1 2h14v12h-14v-12zm1 1v4h4v-4h-4zm6 0v1h6v-1h-6zm0 3v1h6v-1h-6zm-6 2v5h12v-5h-12z" fill="currentColor"/>
</svg>

<svg xmlns="http://www.w3.org/2000/svg" viewBox="0 0 24 24">
  <defs id="defs3051">
    <style type="text/css" id="current-color-scheme">
      .ColorScheme-Text {
        color:#dedede;
      }
      </style>
  </defs>
 <path style="fill:currentColor;fill-opacity:1;stroke:none" 
     d="M 5 4 L 5 6 L 4 6 L 4 7 L 4 20 L 5 20 L 20 20 L 20 19 L 20 7 L 20 6 L 19 6 L 19 4 L 6 4 L 5 4 z M 6 5 L 18 5 L 18 6 L 6 6 L 6 5 z M 5 7 L 19 7 L 19 19 L 5 19 L 5 7 z M 6 8 L 6 12 L 10 12 L 10 8 L 6 8 z M 12 8 L 12 9 L 18 9 L 18 8 L 12 8 z M 12 11 L 12 12 L 18 12 L 18 11 L 12 11 z M 6 13 L 6 18 L 18 18 L 18 13 L 6 13 z "
     class="ColorScheme-Text"
     />
</svg>
